X:20
T:Nothing Like Grog
S:John Moore's Book 1
Z:Transcribed by Paul Barber-Riley  March 2016
M:C
L:1/8
K:G
%%VWML: Moore1-4493-p13-0
F:http://www.vwml.org/record/Moore1/4493/p13
d2 | g2 d>B c2 e>c | d2 BG c2 Ac | (cB) AG F2zA | B2 gf (ge)d^c |
d2A2z2F2 | (GF)GA B2 e^c | d4z2A2 | d2 d^c d2 dd |
d2 B2 z2 dd  | g2 dB (ce)cA | (G2 F2) z2 D2  | G2  B>G A2 (c>A) |
B2 d>B c2 e>c | d2 =f>d e2 g>e | fafd g4 | d4 !fermata!z3 d>c |
(BG)c>A G2 AF | G6 :|
